X:97
T:score184
L:1/16
Q:1/4=60
M:3/8
I:linebreak $
K:Ab
!p! E>E | (EA).A.A.A.A | (AG)(G>FG>E) | (A4 B2) | (d>c).B2(B/=A/B/c/) |"_cresc." (d4 c2 |$ %6
 f2B2e2) |!p! (A/G/A/B/)(c2B2) | A2 z2 z2 |] %9
